X: 5885
T: Calum's Road
R: strathspey
M: 4/4
K: Dmajor
|:"D"D2A>F "F#m"A3A|"G"B<d d>c "D"B>A F<A|"G"B2 d>E "D"F2 E<D|"G"B,<D (3DEF "A"E4|
"D"D2A>F "F#m"A3A|"G"B<d d>c "D"B>A F<A|"G"B2 d>E "D"F2 E<D|1 "G"B,<D "A"D>E "G"D4:|2 "G"B,<D "A"D>E "D"D2F>A||
|:"G"B2d>c B4|"D"A>B A<E F2F>A|"G"B2d>c B3A|"D"d2d>e (3fed (3dBA|
"G"B2d>c B4|"D"A>B A<E F2F>A|"G"B2 d>E "D"F2 E<D|"G"B,<D "A"D>E "D"D4:|

